public/icons/ecosystem/debank.svg

<?xml version="1.0" encoding="UTF-8"?>
<svg width="26px" height="26px" viewBox="0 0 26 26" version="1.1" xmlns="http://www.w3.org/2000/svg" xmlns:xlink="http://www.w3.org/1999/xlink" style="background: #FE815F;">
    <!-- Generator: Sketch 63.1 (92452) - https://sketch.com -->
    <title>logo/horizon</title>
    <desc>Created with Sketch.</desc>
    <g id="logo/horizon" stroke="none" stroke-width="0" fill="none" fill-rule="evenodd">
        <rect x="0" y="0" width="26" height="26"></rect>
        <path d="M22.3641587,18.0846894 C22.3641587,22.2969839 18.8981981,25.7117234 14.6227191,25.7117234 L3.33955086e-13,25.7117234 L3.33955086e-13,20.627034 L14.6227191,20.627034 C16.0478788,20.627034 17.203199,19.4887875 17.203199,18.0846894 C17.203199,16.6805912 16.0478788,15.5423447 14.6227191,15.5423447 L9.46175944,15.5423447 L9.46175944,10.4576553 L14.6227191,10.4576553 C16.0478788,10.4576553 17.203199,9.31940884 17.203199,7.91531065 C17.203199,6.51121245 16.0478788,5.37296597 14.6227191,5.37296597 L3.33955086e-13,5.37296597 L3.33955086e-13,0.28827662 L14.6227191,0.28827662 C18.8981981,0.28827662 22.3641587,3.70301607 22.3641587,7.91531065 C22.3641587,9.86873246 21.6187779,11.6506341 20.3929469,13 C21.6187779,14.3493659 22.3641587,16.1312675 22.3641587,18.0846894 Z" id="Path" fill="#FFFFFF" opacity="0.800000012"></path>
        <path d="M-7.37188088e-14,20.627034 L12.5594062,20.627034 C9.89161879,23.7145761 5.64418088,25.7117234 0.860159949,25.7117234 C0.571408732,25.7117234 0.284612298,25.7044477 -7.37188088e-14,25.6900958 L-7.37188088e-14,20.627034 L-7.37188088e-14,20.627034 Z M15.1903717,15.5423447 L10.3219194,15.5423447 L10.3219194,10.4576553 L15.1903717,10.4576553 C15.3821863,11.2791122 15.4828791,12.1293338 15.4828791,13 C15.4828791,13.8706662 15.3821863,14.7208878 15.1903717,15.5423447 Z M12.5594062,5.37296597 L8.35775893e-13,5.37296597 L8.35775893e-13,0.309904179 C0.284612298,0.295552266 0.571408732,0.28827662 0.860159949,0.28827662 C5.64418088,0.28827662 9.89161879,2.28542386 12.5594062,5.37296597 L12.5594062,5.37296597 Z" id="Shape" fill="#000000" fill-rule="nonzero" opacity="0.119999997"></path>
        <path d="M2.83328916e-13,0.28827662 C7.12579833,0.28827662 12.9023992,5.97950903 12.9023992,13 C12.9023992,20.020491 7.12579833,25.7117234 2.83328916e-13,25.7117234 L2.83328916e-13,20.627034 C4.275479,20.627034 7.74143954,17.2122946 7.74143954,13 C7.74143954,8.78770542 4.275479,5.37296597 2.83328916e-13,5.37296597 L2.83328916e-13,0.28827662 Z" id="Path" fill="#FFFFFF" fill-rule="nonzero"></path>
    </g>
</svg>

<svg width="26" height="26" xmlns="http://www.w3.org/2000/svg" version="1.1">
 <!-- Generator: Sketch 63.1 (92452) - https://sketch.com -->

 <title>logo/horizon</title>
 <desc>Created with Sketch.</desc>
 <g>
  <title>Layer 1</title>
  <path opacity="0.8" fill="#FFFFFF" id="Path" d="m22.36416,18.08469c0,4.21229 -3.46596,7.62703 -7.74144,7.62703l-14.62272,0l0,-5.08469l14.62272,0c1.42516,0 2.58048,-1.13824 2.58048,-2.54234c0,-1.4041 -1.15532,-2.54235 -2.58048,-2.54235l-5.16096,0l0,-5.08468l5.16096,0c1.42516,0 2.58048,-1.13825 2.58048,-2.54235c0,-1.4041 -1.15532,-2.54234 -2.58048,-2.54234l-14.62272,0l0,-5.08469l14.62272,0c4.27548,0 7.74144,3.41474 7.74144,7.62703c0,1.95342 -0.74538,3.73532 -1.97121,5.08469c1.22583,1.34937 1.97121,3.13127 1.97121,5.08469z"/>
  <path opacity="0.12" fill-rule="nonzero" fill="#000000" id="Shape" d="m0,20.62703l12.55941,0c-2.66779,3.08755 -6.91523,5.08469 -11.69925,5.08469c-0.28875,0 -0.57555,-0.00727 -0.86016,-0.02162l0,-5.06307l0,0zm15.19037,-5.08469l-4.86845,0l0,-5.08468l4.86845,0c0.19182,0.82145 0.29251,1.67167 0.29251,2.54234c0,0.87067 -0.10069,1.72089 -0.29251,2.54234zm-2.63096,-10.16937l-12.55941,0l0,-5.06307c0.28461,-0.01435 0.57141,-0.02162 0.86016,-0.02162c4.78402,0 9.03146,1.99714 11.69925,5.08469l0,0z"/>
  <path fill-rule="nonzero" fill="#FFFFFF" id="Path" d="m0,0.28828c7.1258,0 12.9024,5.69123 12.9024,12.71172c0,7.02049 -5.7766,12.71172 -12.9024,12.71172l0,-5.08469c4.27548,0 7.74144,-3.41474 7.74144,-7.62703c0,-4.21229 -3.46596,-7.62703 -7.74144,-7.62703l0,-5.08469z"/>
 </g>
</svg>
